data/yeon-sung.svg

<svg width="57.624" height="14" viewBox="0 0 57.624 14" xmlns="http://www.w3.org/2000/svg"><path transform="translate(0 11.2) scale(.014 -.014)" d="m201 329q-13 25-30.5 57.5t-36.5 65.5-37 62.5-32 49.5q-7 10-15 19.5t-14.5 17.5-10 15-0.5 11q5 9 18.5 9t28.5-5 30-13 23-15q14-13 31-36t34.5-49 33-51.5 25.5-43.5q7 13 24 36.5t36.5 49 38.5 49.5 32 39q14 16 33 27.5t38 17.5 34.5 5.5 21.5-7.5q3-4-1.5-11.5t-12-16-15.5-17-12-14.5q-15-21-37.5-53t-46.5-67-46-69-37-59q0-13 0-42.5t-1-63.5-2-66-2-48q-2-18-6.5-39.5t-19.5-41.5q-7-9-17-17t-21.5-13.5-23-6.5-21.5 5q-5 3-5 10.5t2.5 16 5 16.5 3.5 12q7 39 8.5 76.5t1.5 54.5z"/><path transform="translate(6.972 11.2) scale(.014 -.014)" d="m222-11q-52 1-90.5 23.5t-62.5 58-33 79-3 85.5q6 46 25.5 84t49.5 64 70 39.5 87 10.5q40-3 67-21t44-41 25-46 10-35q10-8 17-21t7-18q-3-15-41-23-15-3-50-7t-75.5-8-79-6-59.5-1q-2-19 0-43t12-45.5 30-36.5 54-16q22-2 47.5 3t35.5 9q38 13 55 21t24 0q6-6-1.5-27t-37.5-45q-30-23-65-30t-62-7zm102 303q-3 15-11.5 30.5t-22 27-31 17.5-37.5 2q-19-3-33.5-14t-25.5-26-18-32-10-33q54 8 99 15t90 13z"/><path transform="translate(13.132 11.2) scale(.014 -.014)" d="m23 206q0 47 17.5 90t49.5 76 76 52.5 97 19.5q44 0 80.5-19t62.5-51 40.5-73 14.5-85q0-45-16.5-89.5t-46.5-79-72-56-93-21.5q-48 0-87 17.5t-66.5 49-42 75-14.5 94.5zm238 152q-33 0-61-12.5t-49-34-32.5-50-11.5-59.5q0-26 9.5-51.5t26.5-46.5 41.5-34 53.5-13 55.5 14.5 46 37.5 31 52.5 11.5 59.5q0 24-8.5 48t-24 44-38 32.5-50.5 12.5z"/><path transform="translate(19.908 11.2) scale(.014 -.014)" d="m152 358q6 9 17.5 17t25 14 28.5 9.5 27 3.5q81 0 122.5-53t41.5-162q0-25-2.5-51t-3-53 2-53 12.5-51q3-6 6.5-13.5t6.5-15 3-13.5-5-10q-4-3-12-2.5t-17 3-17.5 5.5-12.5 6q-18 12-28.5 34t-15.5 49.5-6 57-1 56.5q0 31-3 60.5t-12 53-25.5 39-42.5 18.5q-19 2-43.5-2.5t-42.5-25.5q0-54-1-108.5t-3-111.5q-1-29-8-53.5t-17.5-43-23-29-25.5-10.5q-8 0-10 20t-1.5 46.5 2 53.5 1.5 42q0 60 1.5 125.5t-3.5 140.5q-14 9-25.5 22t-15.5 30q-1 4-1 10.5t1 12.5 3.5 10.5 7.5 4.5 12-2 13-4q7-3 17-7t20-8.5 19.5-9.5 15.5-9q9-7 13.5-16.5t4.5-24.5z"/><path transform="translate(30.618 11.2) scale(.014 -.014)" d="m39 472q0 43 15.5 77.5t43.5 57.5 66 34.5 83 10.5q47-2 84-17.5t58-35.5q7-6 15.5-17t14-23 6-23-8.5-17q-6-5-15.5-5t-19.5 2.5-19 7-14 8.5q-21 17-49.5 27.5t-51.5 11.5q-30 1-53-5.5t-38.5-18.5-23.5-27.5-8-31.5q0-28 22-48.5t48-32.5q28-12 58.5-24.5t60.5-27.5 57-33 47.5-41.5 32.5-54 12-69.5q0-32-14-62.5t-40-55.5-63.5-41-84.5-17q-35-1-73 7t-70 26-55.5 46.5-29.5 69.5q-2 15 1 28t9 22.5 13.5 15 14.5 5.5 14-7.5 12-17 8.5-18.5 5.5-13q10-23 27-39t36.5-26 40.5-14.5 38-3.5q23 1 44 8t37 19.5 25.5 31 9.5 41.5q0 25-19.5 49.5t-49 45.5-65 38.5-67.5 29.5q-56 22-92 60.5t-36 86.5z"/><path transform="translate(37.422 11.2) scale(.014 -.014)" d="m158 235q0-31 1.5-59.5t9-51 22.5-37 41-17.5q18-2 36.5 2t33.5 11q4 1 14.5 6t21.5 8l14 4v302q-14 9-24 22t-14 30q-1 4-1 10.5t1 12.5 3.5 10.5 7.5 4.5 12-2 13-4q14-5 35.5-15t34.5-19q9-7 13.5-16.5t4.5-24.5v-341q0-13 3.5-26.5t8.5-23.5q6-14 10.5-25.5t-1.5-16.5q-3-3-10-3t-16 1.5-17.5 4-14.5 5.5q-25 13-38 34-2 4-3.5 7.5t-3.5 7.5l-13-12q-21-20-52.5-34.5t-67.5-14.5q-69 0-111 50.5t-44 158.5q0 22 1 49t0.5 55-3 55.5-9.5 50.5q-2 6-5.5 13.5t-6 14.5-2.5 13.5 5 10.5q4 3 12 2.5t17-3 17.5-5.5 12.5-6q16-10 26-25.5t15.5-34.5 7.5-41 2-44z"/><path transform="translate(44.506 11.2) scale(.014 -.014)" d="m152 358q6 9 17.5 17t25 14 28.5 9.5 27 3.5q81 0 122.5-53t41.5-162q0-25-2.5-51t-3-53 2-53 12.5-51q3-6 6.5-13.5t6.5-15 3-13.5-5-10q-4-3-12-2.5t-17 3-17.5 5.5-12.5 6q-18 12-28.5 34t-15.5 49.5-6 57-1 56.5q0 31-3 60.5t-12 53-25.5 39-42.5 18.5q-19 2-43.5-2.5t-42.5-25.5q0-54-1-108.5t-3-111.5q-1-29-8-53.5t-17.5-43-23-29-25.5-10.5q-8 0-10 20t-1.5 46.5 2 53.5 1.5 42q0 60 1.5 125.5t-3.5 140.5q-14 9-25.5 22t-15.5 30q-1 4-1 10.5t1 12.5 3.5 10.5 7.5 4.5 12-2 13-4q7-3 17-7t20-8.5 19.5-9.5 15.5-9q9-7 13.5-16.5t4.5-24.5z"/><path transform="translate(51.016 11.2) scale(.014 -.014)" d="m130 1q-30 6-46.5 16.5t-24 22-8.5 21-1 13.5q0 14 7.5 28.5t18 27.5 23 23 23.5 15q-31 21-50.5 51t-19.5 59q0 22 9.5 49t31 50 57 39 88.5 17q19 0 37.5-6.5t35.5-17.5q12 24 37 42t57 26q6 2 20 3.5t18-2.5 4.5-13.5-0.5-19.5-3.5-18.5-4.5-10.5q-5-5-16-11.5t-24-12.5-26-11-23-8q17-18 24-43t5-50q-2-30-15-56t-35-45-52-29.5-66-9.5q-12 0-15 1-14 0-27.5-6.5t-24-15.5-17-18.5-6.5-14.5q1-11 14.5-17t30.5-8l141-19q45-6 73.5-21.5t45-35 22.5-40.5 6-39q-1-36-14-67t-39.5-53.5-67.5-35-98-12.5-95 14-61 34.5-32.5 43.5-9.5 42q-1 21 9.5 45t21.5 39q9 12 19 20t18 4 5-15-5-27q-2-12-2.5-23t4.5-28q1-3 5.5-13.5t17.5-21.5 38-19.5 67-8.5q48 0 75.5 9t42 22 18 27 3.5 24q0 15-18 33t-71 29zm72 198q43 4 69.5 28.5t26.5 54.5q0 33-24.5 52.5t-63.5 19.5q-14 0-29-2.5t-27.5-9.5-21-20-9.5-33q-1-14 6.5-22.5t18.5-17.5q22-14 37-25.5t17-24.5z"/></svg>

<?xml version="1.0" encoding="utf-8" ?>
<svg baseProfile="tiny" height="100%" version="1.2" width="100%" xmlns="http://www.w3.org/2000/svg" xmlns:ev="http://www.w3.org/2001/xml-events" xmlns:xlink="http://www.w3.org/1999/xlink"><defs /><g><path d="M201 329Q188 354 170.5 386.5Q153 419 134.0 452.0Q115 485 97.0 514.5Q79 544 65 564Q58 574 50.0 583.5Q42 593 35.5 601.0Q29 609 25.5 616.0Q22 623 25 627Q30 636 43.5 636.0Q57 636 72.0 631.0Q87 626 102.0 618.0Q117 610 125 603Q139 590 156.0 567.0Q173 544 190.5 518.0Q208 492 223.5 466.5Q239 441 249 423Q256 436 273.0 459.5Q290 483 309.5 508.5Q329 534 348.0 558.0Q367 582 380 597Q394 613 413.0 624.5Q432 636 451.0 642.0Q470 648 485.5 647.5Q501 647 507 640Q510 636 505.5 628.5Q501 621 493.5 612.5Q486 604 478.0 595.5Q470 587 466 581Q451 560 428.5 528.0Q406 496 382.0 461.0Q358 426 336.0 392.0Q314 358 299 333Q299 320 299.0 290.5Q299 261 298.0 227.0Q297 193 296.0 161.0Q295 129 294 113Q292 95 287.5 73.5Q283 52 268 32Q261 23 251.0 15.0Q241 7 229.5 1.5Q218 -4 206.5 -5.0Q195 -6 185 0Q180 3 180.0 10.5Q180 18 182.5 26.5Q185 35 187.5 43.0Q190 51 191 55Q198 94 199.5 131.5Q201 169 201 186Z" transform="translate(0.0, 72) scale(0.072, -0.072)" /><path d="M222 -11Q170 -10 131.5 12.5Q93 35 69.0 70.5Q45 106 36.0 149.5Q27 193 33 235Q39 281 58.5 319.0Q78 357 108.0 383.0Q138 409 178.0 422.5Q218 436 265 433Q305 430 332.0 412.0Q359 394 376.0 371.0Q393 348 401.0 325.0Q409 302 411 290Q421 282 428.0 269.0Q435 256 435 251Q432 236 394 228Q379 225 344.0 221.0Q309 217 268.5 213.0Q228 209 189.5 207.0Q151 205 130 206Q128 187 130.0 163.0Q132 139 142.0 117.5Q152 96 172.0 81.0Q192 66 226 65Q248 63 273.5 68.0Q299 73 309 77Q347 90 364.0 98.0Q381 106 388 98Q394 92 386.5 71.0Q379 50 349 26Q319 3 284.0 -4.0Q249 -11 222 -11ZM324 292Q321 307 312.5 322.5Q304 338 290.5 349.5Q277 361 259.5 367.0Q242 373 222 369Q203 366 188.5 355.0Q174 344 163.0 329.0Q152 314 145.0 297.0Q138 280 135 264Q189 272 234.0 279.0Q279 286 324 292Z" transform="translate(35.855999999999995, 72) scale(0.072, -0.072)" /><path d="M23 206Q23 253 40.5 296.0Q58 339 90.0 372.0Q122 405 166.0 424.5Q210 444 263 444Q307 444 343.5 425.0Q380 406 406.0 374.0Q432 342 446.5 301.0Q461 260 461 216Q461 171 444.5 126.5Q428 82 398.0 47.5Q368 13 326.0 -8.5Q284 -30 233 -30Q185 -30 146.0 -12.5Q107 5 79.5 36.5Q52 68 37.5 111.5Q23 155 23 206ZM261 358Q228 358 200.0 345.5Q172 333 151.0 311.5Q130 290 118.5 261.5Q107 233 107 202Q107 176 116.5 150.5Q126 125 143.0 104.0Q160 83 184.5 70.0Q209 57 238 57Q267 57 293.5 71.5Q320 86 339.5 109.0Q359 132 370.5 161.5Q382 191 382 221Q382 245 373.5 269.0Q365 293 349.5 313.0Q334 333 311.5 345.5Q289 358 261 358Z" transform="translate(67.53599999999999, 72) scale(0.072, -0.072)" /><path d="M152 358Q158 367 169.5 375.0Q181 383 194.5 389.0Q208 395 223.0 398.5Q238 402 250 402Q331 402 372.5 349.0Q414 296 414 187Q414 162 411.5 136.0Q409 110 408.5 83.0Q408 56 410.5 30.0Q413 4 423 -21Q426 -27 429.5 -34.5Q433 -42 436.0 -49.5Q439 -57 439.0 -63.0Q439 -69 434 -73Q430 -76 422.0 -75.5Q414 -75 405.0 -72.5Q396 -70 387.5 -67.0Q379 -64 375 -61Q357 -49 346.5 -27.0Q336 -5 331.0 22.5Q326 50 325.0 79.5Q324 109 324 136Q324 167 321.0 196.5Q318 226 309.0 249.5Q300 273 283.5 288.5Q267 304 241 307Q222 309 197.5 304.5Q173 300 155 279Q155 225 154.0 170.5Q153 116 151 59Q150 30 143.0 5.5Q136 -19 125.5 -37.5Q115 -56 102.5 -66.5Q90 -77 77 -77Q69 -77 67.0 -57.0Q65 -37 65.5 -10.5Q66 16 67.5 43.0Q69 70 69 85Q69 145 70.5 210.5Q72 276 67 351Q53 360 41.5 373.0Q30 386 26 403Q25 407 25.0 413.5Q25 420 26.0 426.0Q27 432 29.5 436.5Q32 441 37 441Q42 441 49.0 439.0Q56 437 62 435Q69 432 79.0 428.0Q89 424 99.0 419.5Q109 415 118.5 410.0Q128 405 134 401Q143 394 147.5 384.5Q152 375 152 360Z" transform="translate(102.38399999999999, 72) scale(0.072, -0.072)" /><path d="M39 472Q39 515 54.5 549.5Q70 584 98.0 607.0Q126 630 164.0 641.5Q202 653 247 652Q294 650 331.0 634.5Q368 619 389 599Q396 593 404.5 582.0Q413 571 418.5 559.0Q424 547 424.5 536.0Q425 525 416 519Q410 514 400.5 514.0Q391 514 381.0 516.5Q371 519 362.0 523.5Q353 528 348 532Q327 549 298.5 559.5Q270 570 247 571Q217 572 194.0 565.5Q171 559 155.5 547.0Q140 535 132.0 519.5Q124 504 124 488Q124 460 146.0 439.5Q168 419 194 407Q222 395 252.5 382.5Q283 370 313.0 355.0Q343 340 370.0 322.0Q397 304 417.5 280.5Q438 257 450.0 226.5Q462 196 462 157Q462 125 448.0 94.5Q434 64 408.0 39.0Q382 14 344.5 -2.0Q307 -18 260 -19Q225 -20 187.0 -12.0Q149 -4 117.0 14.0Q85 32 61.5 60.5Q38 89 32 130Q30 145 33.0 158.0Q36 171 42.0 180.5Q48 190 55.5 195.5Q63 201 70 201Q77 201 84.0 193.5Q91 186 96.0 176.5Q101 167 104.5 158.0Q108 149 110 145Q120 122 137.0 106.0Q154 90 173.5 80.0Q193 70 214.0 65.5Q235 61 252 62Q275 63 296.0 70.0Q317 77 333.0 89.5Q349 102 358.5 120.5Q368 139 368 162Q368 187 348.5 211.5Q329 236 299.5 257.0Q270 278 234.5 295.5Q199 313 167 325Q111 347 75.0 385.5Q39 424 39 472Z" transform="translate(157.46399999999997, 72) scale(0.072, -0.072)" /><path d="M158 235Q158 204 159.5 175.5Q161 147 168.5 124.5Q176 102 191.0 87.5Q206 73 232 70Q250 68 268.5 72.0Q287 76 302 83Q306 84 316.5 89.0Q327 94 338 97L352 101V403Q338 412 328.0 425.0Q318 438 314 455Q313 459 313.0 465.5Q313 472 314.0 478.0Q315 484 317.5 488.5Q320 493 325 493Q330 493 337.0 491.0Q344 489 350 487Q364 482 385.5 472.0Q407 462 420 453Q429 446 433.5 436.5Q438 427 438 412V71Q438 58 441.5 44.5Q445 31 450 21Q456 7 460.5 -4.5Q465 -16 459 -21Q456 -24 449.0 -24.0Q442 -24 433.0 -22.5Q424 -21 415.5 -18.5Q407 -16 401 -13Q376 0 363 21Q361 25 359.5 28.5Q358 32 356 36L343 24Q322 4 290.5 -10.5Q259 -25 223 -25Q154 -25 112.0 25.5Q70 76 68 184Q68 206 69.0 233.0Q70 260 69.5 288.0Q69 316 66.5 343.5Q64 371 57 394Q55 400 51.5 407.5Q48 415 45.5 422.0Q43 429 43.0 435.5Q43 442 48 446Q52 449 60.0 448.5Q68 448 77.0 445.5Q86 443 94.5 440.0Q103 437 107 434Q123 424 133.0 408.5Q143 393 148.5 374.0Q154 355 156.0 333.0Q158 311 158 289Z" transform="translate(192.45599999999996, 72) scale(0.072, -0.072)" /><path d="M152 358Q158 367 169.5 375.0Q181 383 194.5 389.0Q208 395 223.0 398.5Q238 402 250 402Q331 402 372.5 349.0Q414 296 414 187Q414 162 411.5 136.0Q409 110 408.5 83.0Q408 56 410.5 30.0Q413 4 423 -21Q426 -27 429.5 -34.5Q433 -42 436.0 -49.5Q439 -57 439.0 -63.0Q439 -69 434 -73Q430 -76 422.0 -75.5Q414 -75 405.0 -72.5Q396 -70 387.5 -67.0Q379 -64 375 -61Q357 -49 346.5 -27.0Q336 -5 331.0 22.5Q326 50 325.0 79.5Q324 109 324 136Q324 167 321.0 196.5Q318 226 309.0 249.5Q300 273 283.5 288.5Q267 304 241 307Q222 309 197.5 304.5Q173 300 155 279Q155 225 154.0 170.5Q153 116 151 59Q150 30 143.0 5.5Q136 -19 125.5 -37.5Q115 -56 102.5 -66.5Q90 -77 77 -77Q69 -77 67.0 -57.0Q65 -37 65.5 -10.5Q66 16 67.5 43.0Q69 70 69 85Q69 145 70.5 210.5Q72 276 67 351Q53 360 41.5 373.0Q30 386 26 403Q25 407 25.0 413.5Q25 420 26.0 426.0Q27 432 29.5 436.5Q32 441 37 441Q42 441 49.0 439.0Q56 437 62 435Q69 432 79.0 428.0Q89 424 99.0 419.5Q109 415 118.5 410.0Q128 405 134 401Q143 394 147.5 384.5Q152 375 152 360Z" transform="translate(228.88799999999995, 72) scale(0.072, -0.072)" /><path d="M130 1Q100 7 83.5 17.5Q67 28 59.5 39.5Q52 51 51.0 60.5Q50 70 50 74Q50 88 57.5 102.5Q65 117 75.5 130.0Q86 143 98.5 153.0Q111 163 122 168Q91 189 71.5 219.0Q52 249 52 278Q52 300 61.5 327.0Q71 354 92.5 377.0Q114 400 149.5 416.0Q185 432 238 433Q257 433 275.5 426.5Q294 420 311 409Q323 433 348.0 451.0Q373 469 405 477Q411 479 425.0 480.5Q439 482 443 478Q447 474 447.5 464.5Q448 455 447.0 445.0Q446 435 443.5 426.5Q441 418 439 416Q434 411 423.0 404.5Q412 398 399.0 392.0Q386 386 373.0 381.0Q360 376 350 373Q367 355 374.0 330.0Q381 305 379 280Q377 250 364.0 224.0Q351 198 329.0 179.0Q307 160 277.0 149.5Q247 139 211 140Q199 140 196 141Q182 141 168.5 134.5Q155 128 144.5 119.0Q134 110 127.5 100.5Q121 91 121 86Q122 75 135.5 69.0Q149 63 166 61L307 42Q352 36 380.5 20.5Q409 5 425.5 -14.5Q442 -34 448.0 -55.0Q454 -76 454 -94Q453 -130 440.0 -161.0Q427 -192 400.5 -214.5Q374 -237 333.0 -249.5Q292 -262 235 -262Q178 -262 140.0 -248.0Q102 -234 79.0 -213.5Q56 -193 46.5 -170.0Q37 -147 37 -128Q36 -107 46.5 -83.0Q57 -59 68 -44Q77 -32 87.0 -24.0Q97 -16 105 -20Q113 -24 110.0 -35.0Q107 -46 105 -62Q103 -74 102.5 -85.0Q102 -96 107 -113Q108 -116 112.5 -126.5Q117 -137 130.0 -148.0Q143 -159 168.0 -167.5Q193 -176 235 -176Q283 -176 310.5 -167.0Q338 -158 352.5 -145.0Q367 -132 370.5 -118.0Q374 -104 374 -94Q374 -79 356.0 -61.0Q338 -43 285 -32ZM202 199Q245 203 271.5 227.5Q298 252 298 282Q298 315 273.5 334.5Q249 354 210 354Q196 354 181.0 351.5Q166 349 153.5 342.0Q141 335 132.5 322.0Q124 309 123 289Q122 275 129.5 266.5Q137 258 148 249Q170 235 185.0 223.5Q200 212 202 199Z" transform="translate(262.36799999999994, 72) scale(0.072, -0.072)" /></g></svg>
